X: 397
T: Bir Neş`e Umdu Gönül
C: Nuri Halil Poyraz
O: Turkey
F: http://compmusic.upf.edu/node/140
N: nihavent--sarki--semai--bir_nese--nuri_halil_poyraz
N: makam= nihavent
N: form= sarki
N: usul= semai = 3/4
M: 3/4
L: 1/16
K: C _B _e  
Q: 1/4=153
%%MIDI tuningsystem comma53
G12  | B12  | A4 A2B2 A2G2  | A2^F2 D4 z4  | A12  | c12  | \
w:  ARANAĞME  |   |   |   |   |   | 
B4 B3A B2c2  | d3c B4 z4  | 
w:   |   | 
d12  | g8 a4  | b8 a2g2  | ^f8 z4  | d3c d2e2 c2d2  | \
w:   |   |   |   |   | 
B3A B2c2 A2c2  | B2A2 G4 ^F4  | 
w:   |   | 
G8 z4  | G12  | B12  | A4 A2B2 A2G2  | A2^F2 D4 z4  | A12  | c12  | \
w:   |  ARANAĞME  |   |   |   |   |   | 
B4 B3A B2c2  | d3c B4 z4  | 
w:   |   | 
d12  | g8 a4  | b8 a2g2  | ^f8 z4  | d3c d2e2 c2d2  | \
w:   |   |   |   |   | 
B3A B2c2 A2c2  | B2A2 G4 ^F4  | 
w:   |   | 
G8 z4  | G12  | d8 d4  | c12  | d2c2 B4 c4  | d12  | \
w:   |  Bir   |  neş e   |  um  |  du  *  *  gö  |  nül   | 
d8 z4  | d4 e2d2 c2=B2  | c8 z4  | f4 f2e2 d2e2  | 
w:   |  se râ  |  pa   |  ke der   | 
f2g2 f2e2 e2d2  | d12  | d8 z4  | d3c d2e2 c2d2  | \
w:  ol  |  du    |   |  SAZ  | 
B3A B2c2 A2c2  | 
w:   | 
B3A G4 ^F4  | G8 z4  | G12  | d8 d4  | c12  | \
w:  SAZ  |   |  Bir   |  neş e   |  um  | 
d2c2 B4 c4  | d12  | d8 z4  | d4 e2d2 c2=B2  | 
w:  du  *  *  gö  |  nül   |   |  se râ  | 
c8 z4  | f4 f2e2 d2e2  | f2g2 f2e2 e2d2  | d12  | \
w:  pa   |  ke der   |  ol  |  du    | 
d8 z4  | d3c d2e2 c2d2  | 
w:   |  SAZ  | 
B3A B2c2 A2c2  | B3A G2^F2 G2e2  | d8 z4  | \
w:   |  SAZ  |   | 
d4 d8  | g8 z4  | d12  | c8 d2c2  | 
w:  Gö rün  |  dü   |  geç  |  ti  ba  | 
B12  | B8 z4  | B4 A2G2 ^F2G2  | A12  | c4 c2B2 A2B2  | \
w:  har   |   |  ha zan  |  la   |  he der   | 
c2d2 B2A2 G2^F2  | G12  | 
w:  ol  |  du    | 
G8 z4  | d3c d2e2 c2d2  | B2A2 B2c2 A2c2  | \
w:   |  SAZ  |   | 
B3A G2^F2 G2e2  | d8 z4  | 
w:   |   | 
G12  | d8 d4  | c12  | d2c2 B4 c4  | d12  | d8 z4  | \
w:  Bir   |  neş e   |  um  |  du  *  *  gö  |  nül   |   | 
d4 e2d2 c2=B2  | c8 z4  | f4 f2e2 d2e2  | 
w:  se râ  |  pa   |  ke der   | 
f2g2 f2e2 e2d2  | d12  | d8 z4  | d3c d2e2 c2d2  | \
w:  ol  |  du    |   |  SAZ  | 
B3A B2c2 A2c2  | 
w:   | 
B3A G4 ^F4  | G8 z4  | G12  | d8 d4  | c12  | \
w:  SAZ  |   |  Bir   |  neş e   |  um  | 
d2c2 B4 c4  | d12  | d8 z4  | d4 e2d2 c2=B2  | 
w:  du  *  *  gö  |  nül   |   |  se râ  | 
c8 z4  | f4 f2e2 d2e2  | f2g2 f2e2 e2d2  | d12  | \
w:  pa   |  ke der   |  ol  |  du    | 
d8 z4  | d3c d2e2 c2d2  | 
w:   |  SAZ  | 
B3A B2c2 A2c2  | B3A G2^F2 G2e2  | d8 z4  | \
w:   |  SAZ  |   | 
d4 d8  | g8 z4  | d12  | c8 d2c2  | 
w:  Gö rün  |  dü   |  geç  |  ti  ba  | 
B12  | B8 z4  | B4 A2G2 ^F2G2  | A12  | c4 c2B2 A2B2  | \
w:  har   |   |  ha zan  |  la   |  he der   | 
c2d2 B2A2 G2^F2  | G12  | 
w:  ol  |  du    | 
G8 z4  | d3c d4 e4  | ^f4 g4 a4  | b3a g4 ^f4  | \
w:   |  SAZ  |   |   | 
g8 z4  | d4 d8  | g12  | a2g2 ^f8  | 
w:   |  Bül bül  |  le   |  hem *  der  | 
g12  | a12  | a8 z4  | b2a2 g2^f2 e2d2  | c8 z4  | \
w:  dim   |  ben   |   |  her   |  an   | 
g8 a4  | b4 a2g2 g2^f2  | g12  | g8 z4  | 
w:  ah  e  |  der  ol  |  dum    |   | 
d3c d4 e4  | ^f4 g4 a4  | b2a2 g4 ^f4  | \
w:  SAZ  |   |   | 
g8 z4  | b4 b8  | a12  | b2a2 g8  | a2g2 ^f4 e4  | 
w:   |  Bül bül  |  le   |  hem *  der  |  dim   | 
^f12  | ^f8 z4  | g4 ^f2e2 d2f2  | e8 z4  | \
w:  ben   |   |  her   |  an   | 
g8 g4  | g2a2 ^f2e2 e2d2  | d12  | d8 z4  | 
w:  ah  e  |  der  *  ol  |  dum    |   | 
d3c d2e2 c2d2  | B3A B2c2 A2c2  | B2A2 G3^F G3e  | \
w:  SAZ  |   |   | 
d8 z4  | d4 d8  | 
w:   |  Gö rün  | 
g8 z4  | d12  | c8 d2c2  | B12  | B8 z4  | B4 A2G2 ^F2G2  | A12  | \
w:  dü   |  geç  |  ti  ba  |  har   |   |  ha zan  |  la   | 
c4 c2B2 A2B2  | c2d2 B2A2 G2^F2  | 
w:  he der   |  ol  | 
G12  | G8 z4  | |


